X:1180
T:A Pa\u017fpe.  % The 's' here is a long 's' (unicode \u017f).  Mr Malchair's explanation of title is below.
C:John Malchair's Third Collection of Tunes
F:https://www.vwml.org/record/Malchair/3619/p118
F:www.vwml.org/topics/historic-dance-and-tune-books/Malchair
Z:Eric Conrad Feb 2020
W:Ed.1795.
W:This must mean Pa\u017fse-Pied. but is not the Character
W:of that dance according to Mr. Rousseau.
M:6/4
L:1/4
K:C
% beaming exactly as in MS. Spaces below do not necessarily reflect Malchair's intent.
Gcc/d/ ed>c | def gec | c/d/e/f/ d/e/f/g/ ag/f/ | e/d/e/f/g f/e/dB |
B/c/d/B/ e/d/c/B/ Af | fe f/e/d/c/ B>c | dBc ^FG2 ||
% strain B has exactly 7 measures in MS.
B>A G/A/B/c/ dG | GA/B/ c/B/c/d/ ec | cd/e/ f/e/f/g/ af | f/g/ag fe2 |
f2 d>c B2 | e2 c>B Ad/c/ | B/c/d/e/ dB c2 |]


